assets/images/ab-testing.svg

<svg width="186" height="175" viewBox="0 0 186 175" fill="none" xmlns="http://www.w3.org/2000/svg">
<path d="M0 0H84V155H0V0Z" fill="#1539CF"/>
<path d="M43.735 172.485H39.925L39.115 174.9H37L40.615 165H43.09L46.705 174.9H44.56L43.735 172.485ZM43.225 170.955L42.295 168.165L41.845 166.665H41.815L41.395 168.135L40.435 170.955H43.225Z" fill="white"/>
<path d="M140 165H144.335C145.515 165 146.395 165.235 146.975 165.705C147.555 166.165 147.845 166.83 147.845 167.7C147.845 168.25 147.68 168.73 147.35 169.14C147.02 169.54 146.555 169.79 145.955 169.89V169.905C146.635 170.005 147.16 170.265 147.53 170.685C147.91 171.095 148.1 171.595 148.1 172.185C148.1 173.045 147.79 173.715 147.17 174.195C146.55 174.665 145.655 174.9 144.485 174.9H140V165ZM144.05 169.155C145.15 169.155 145.7 168.73 145.7 167.88C145.7 167.03 145.15 166.605 144.05 166.605H142.01V169.155H144.05ZM144.305 173.34C144.855 173.34 145.265 173.23 145.535 173.01C145.815 172.78 145.955 172.455 145.955 172.035C145.955 171.615 145.815 171.295 145.535 171.075C145.265 170.855 144.855 170.745 144.305 170.745H142.01V173.34H144.305Z" fill="white"/>
<path d="M7 16H76V27H7V16Z" fill="#0D2DB5"/>
<path d="M7 31H76V77H7V31Z" fill="#0D2DB5"/>
<path d="M7 81H76V147H7V81Z" fill="#0D2DB5"/>
<path fill-rule="evenodd" clip-rule="evenodd" d="M4 140V12H80V140H4ZM0 155V0H84V155H0Z" fill="white"/>
<path d="M33 5H50V7H33V5Z" fill="#0D2DB5"/>
<path d="M34 144H49V151H34V144Z" fill="#0D2DB5"/>
<path d="M102 0H186V155H102V0Z" fill="#1539CF"/>
<path d="M109 16H178V27H109V16Z" fill="#0D2DB5"/>
<path d="M109 31H142V77H109V31Z" fill="#0D2DB5"/>
<path d="M146 31H178V77H146V31Z" fill="#0D2DB5"/>
<path d="M109 81H178V104H109V81Z" fill="#0D2DB5"/>
<path d="M109 108H178V141H109V108Z" fill="#0D2DB5"/>
<path fill-rule="evenodd" clip-rule="evenodd" d="M106 140V12H182V140H106ZM102 155V0H186V155H102Z" fill="white"/>
<path d="M135 5H152V7H135V5Z" fill="#0D2DB5"/>
<path d="M136 144H151V151H136V144Z" fill="#0D2DB5"/>
</svg>

<svg xmlns="http://www.w3.org/2000/svg" enable-background="new 0 0 186 175" viewBox="0 0 186 175"><path fill="#1539cf" d="M0 0h84v155H0z"/><path fill="#fff" d="M43.7 172.5h-3.8l-.8 2.4H37l3.6-9.9h2.5l3.6 9.9h-2.1zm-.5-1.5l-.9-2.8-.5-1.5-.4 1.5-1 2.8zM140 165h4.3c1.2 0 2.1.2 2.6.7.6.5.9 1.1.9 2 0 .6-.2 1-.5 1.4s-.8.6-1.4.8c.7.1 1.2.4 1.6.8s.6.9.6 1.5c0 .9-.3 1.5-.9 2s-1.5.7-2.7.7H140zm4.1 4.2c1.1 0 1.6-.4 1.6-1.3s-.6-1.3-1.6-1.3h-2v2.6zm.2 4.1c.6 0 1-.1 1.2-.3.3-.2.4-.6.4-1s-.1-.7-.4-1c-.3-.2-.7-.3-1.2-.3H142v2.6z"/><path d="M7 16h70v11H7zM7 31h70v46H7zM7 81h70v66H7z"/><path fill="#fff" fill-rule="evenodd" d="M4 140V12h76v128zm-4 15V0h84v155z" clip-rule="evenodd"/><g fill="#1539cf"><path d="M33 5h17v2H33zM34 144h15v7H34zM102 0h84v155h-84z"/></g><path d="M109 15h70v13h-70zM109 31h35v46h-35zM147 31h32v46h-32zM109 80h70v25h-70zM109 108h70v33h-70z"/><path fill="#fff" fill-rule="evenodd" d="M106 140V12h76v128zm-4 15V0h84v155z" clip-rule="evenodd"/><path fill="#1539cf" d="M135 5h17v2h-17zM136 144h15v7h-15z"/></svg>
